X: 101
P: No. CI.
M: 6/8
L: 1/8
K: Am
V: 1
[|\
aed cAA | (c/d/e)e ea^g | [a2e2c2]b c'cc' | d'ad' {f'}e'2d' | c'(d'/c'/b/a/) c'ec | e2e ega | (a/b/c')a (b/c'/d')a |
c(d/c/B/A/) eB^G | A3- A3 |]\
e(c/d/e) d(B/c/d) | TcBA GAB | Aca Aca | gee c'2d' | e'(c'/d'/e') d'(b/c'/d') |
c'(a/b/c') bge | c'(a/b/c') bga | Tgee e3 | (e/f/g/)e/c ged | cAA GE[dD] | [cC][AA,]a ^g(e/^f/g/)e/ | TcAA A3 |]
V: 2 clef=bass middle=d
[|\
a3 z2z | A3 e2E | A2z a2z | f2z e2z | a2z A2z | c3 z2z | f3 g2f |
ecg c'cz | a3 c2d | e2E A2B | A2d G3 | z2z B3 | A3 a3 | g3 c2B |

